X:1
T:Noidat
C:Tuuli Kaihola 20.3.2014
K:C
M:2/4
Bd ez | Bd fz | Bd ed | ed Bz |
Bd ez | Bd fz | Bd ef | ef dz |]

